icons/linear-ele-container-box.svg

<svg xmlns="http://www.w3.org/2000/svg" width="32px" height="32px" viewBox="0 0 32 32" version="1.1">
    <title>linear-ele-container-box</title>
    <g id="linear-ele-container-box" stroke-width="1" fill-rule="evenodd">
        <path d="M23,2 C23.2919249,2 23.5692744,2.12756273 23.7592566,2.34920863 L29.7592566,9.34920863 C29.9146078,9.53045174 30,9.76128873 30,10 L30,29 C30,29.5522847 29.5522847,30 29,30 L3,30 C2.44771525,30 2,29.5522847 2,29 L2,10 C2,9.76128873 2.08539216,9.53045174 2.2407434,9.34920863 L8.2407434,2.34920863 C8.4307256,2.12756273 8.70807511,2 9,2 L23,2 Z M28,12 L20,12 L20,21 C20,21.5522847 19.5522847,22 19,22 L13,22 C12.4477153,22 12,21.5522847 12,21 L12,12 L4,12 L4,28 L28,28 L28,12 Z M18,12 L14,12 L14,20 L18,20 L18,12 Z M13.674,4 L9.459,4 L4.316,10 L12,10 C12,9.90708347 12.0129499,9.81462034 12.0384761,9.72527887 L13.674,4 Z M16.245,4 L15.754,4 L14.039,10 L17.96,10 L16.245,4 Z M22.54,4 L18.325,4 L19.9615239,9.72527887 C19.9870501,9.81462034 20,9.90708347 20,10 L27.683,10 L22.54,4 Z" id="&#24418;&#29366;" fill-rule="nonzero" />
    </g>
</svg>

<svg xmlns="http://www.w3.org/2000/svg" viewBox="0 0 32 32"><path fill="currentColor" d="M23 2a1 1 0 0 1 .76.35l6 7A1 1 0 0 1 30 10v19a1 1 0 0 1-1 1H3a1 1 0 0 1-1-1V10a1 1 0 0 1 .24-.65l6-7A1 1 0 0 1 9 2zm5 10h-8v9a1 1 0 0 1-1 1h-6a1 1 0 0 1-1-1v-9H4v16h24zm-10 0h-4v8h4zm-4.326-8H9.459l-5.143 6H12a1 1 0 0 1 .038-.275zm2.571 0h-.491l-1.715 6h3.921zm6.295 0h-4.215l1.637 5.725A1 1 0 0 1 20 10h7.683z"/></svg>
